X:1
T:Dave Brubeck - The Essential
T:Dialogues for Jazz Combo and Orchestra: II. Andante - Ballad (Piano Intro) 
C:Dave Brubeck - Leo Bernstein
%%score { 1 | 2 } 3
L:1/8
Q:1/4=120
M:4/4
K:Eb
V:1 treble nm="Piano"
V:2 bass 
V:3 bass transpose=-12 nm="Contrabajo" snm="Cb."
V:1
 (d2 [EG][DF] [CE]4- | [CE]2) z C F2 B2 | (c2 AG F4- |!<(! F2) z D F2 A2 | G2 (ED CC c2) | %5
 (AG F2 d2) (=BA | G4 e4)!<)! | z ([ce][df][eg] [df]2 e2) |!>(! g2 ef e2 G2 | _G2 d4 F2 | %10
 =E2 _d2 c2 G2!>)! |!>(! B2 A2 G2 F2 | (3[EG]2 [EG]2 [DF]2 [EG]4 | z2 [CE]2 [CDF]2 G2 | %14
 (3E2 [CE]2 [DF]2 [EG]4!>)! | D3 z/ A/ =B2 e2 | g8 |] %17
V:2
!mp! C,2 [E,G,]2 [E,G,]4- | [E,G,]2 [E,A,]3 [A,E]2 [A,E] | B,, [A,D]6- [A,D] | %3
!mp!!<(! G,, [F,=B,]4 [F,B,]2 [F,B,] | C, [G,C]4 [G,C]3 | F,, [E,A,]3 G,, [D,=B,]3 | %6
 C, [G,E]2 [G,E]- [G,E]4!<)! |!mf! F, [=A,EG]4 [A,EG]2 [A,EG] | %8
!mf!!>(! [A,D] [A,D]3 [E,G,C] [E,G,C]3 | =A,, [_G,=A,D]3 =B,, [F,=B,D]3 | %10
 C, [B,=E]3 z!mp! [B,_E]3!>)! |!mf!!>(! [A,CE]4 [F,A,=B,E]4 | (3[G,C]2 [G,C]2 A,2 [G,C]4 | %13
 B,,2 [F,A,]2 [F,A,]4 | (3B,,2 G,2- G,2- G,4!>)! |!p! [F,=B,]8 | z8 |] %17
V:3
"^Pizz." z4 z2 C,2 | F,8 | B,,8 | G,,8 | C,4 B,,4 | F,,4 G,,4 | C,8 | F,,8 | B,,8 | =A,,4 G,4 | %10
 C8 | F,4 D,3 F, | B,6 z G, | B,,6 z G, | B,,8 | G,,8 | z8 |] %17

